assets/features/channel/europe-and-america/mastercard.svg

<svg width="80" height="80" viewBox="0 0 80 80" fill="none" xmlns="http://www.w3.org/2000/svg">
<rect width="80" height="80" rx="8" fill="black"/>
<path d="M30.9633 55.1336C39.2273 55.1336 45.9266 48.4328 45.9266 40.1669C45.9266 31.901 39.2273 25.2002 30.9633 25.2002C22.6993 25.2002 16 31.901 16 40.1669C16 48.4328 22.6993 55.1336 30.9633 55.1336Z" fill="#EB001B"/>
<path d="M49.0365 55.1336C57.3005 55.1336 63.9998 48.4328 63.9998 40.1669C63.9998 31.901 57.3005 25.2002 49.0365 25.2002C40.7725 25.2002 34.0732 31.901 34.0732 40.1669C34.0732 48.4328 40.7725 55.1336 49.0365 55.1336Z" fill="#F79E1B"/>
<path d="M39.9959 28.2139C43.5987 30.9446 45.9185 35.2719 45.9185 40.1365C45.9185 45.001 43.5987 49.3359 39.9959 52.0666C36.3931 49.3359 34.0732 45.0085 34.0732 40.1365C34.0732 35.2645 36.4005 30.9446 39.9959 28.2139Z" fill="#FF5F00"/>
</svg>

<svg xmlns="http://www.w3.org/2000/svg" width="80" height="80" fill="none" viewBox="0 0 80 80"><rect width="80" height="80" fill="#000" rx="8"/><path fill="#eb001b" d="M30.963 55.134c8.264 0 14.964-6.701 14.964-14.967S39.227 25.2 30.963 25.2 16 31.901 16 40.167s6.7 14.967 14.963 14.967"/><path fill="#f79e1b" d="M49.037 55.134C57.3 55.134 64 48.433 64 40.167S57.3 25.2 49.036 25.2s-14.963 6.701-14.963 14.967 6.7 14.967 14.963 14.967"/><path fill="#ff5f00" d="M39.996 28.214a14.93 14.93 0 0 1 5.922 11.923c0 4.864-2.32 9.199-5.922 11.93a14.93 14.93 0 0 1-5.923-11.93c0-4.873 2.328-9.192 5.923-11.923"/></svg>
